X: 1
T: BONNY GREEN GARTERS
S: MDT
O: Headington
P: A.(A2B)4
Q: 3/8=108
B: Morris Ring
Z: 2005 John Chambers <jc@trillian.mit.edu>
M: 6/8
L: 1/8
K: G
P: A
|: G |\
   d>cB AGF | G>AB cde | d>ed dcB |1 B3 A2d :|2 A3 G3 ||
P: B
  d>B AGF | G3 A3 | d>B AGF | G3 "then A"A3 | y6
